build/img/icon-ghost.svg

<svg width="25" height="24" viewBox="0 0 25 24" fill="none" xmlns="http://www.w3.org/2000/svg">
<g clip-path="url(#clip0)">
<path d="M15.4126 5.67188C14.2495 5.67188 13.3032 6.61814 13.3032 7.78125C13.3032 8.94436 14.2495 9.89062 15.4126 9.89062C16.5757 9.89062 17.522 8.94436 17.522 7.78125C17.522 6.61814 16.5757 5.67188 15.4126 5.67188ZM15.4126 8.48438C15.0249 8.48438 14.7095 8.16895 14.7095 7.78125C14.7095 7.39355 15.0249 7.07812 15.4126 7.07812C15.8003 7.07812 16.1157 7.39355 16.1157 7.78125C16.1157 8.16895 15.8003 8.48438 15.4126 8.48438Z" fill="white"/>
<path d="M9.7876 5.67188C8.62449 5.67188 7.67822 6.61814 7.67822 7.78125C7.67822 8.94436 8.62449 9.89062 9.7876 9.89062C10.9507 9.89062 11.897 8.94436 11.897 7.78125C11.897 6.61814 10.9507 5.67188 9.7876 5.67188ZM9.7876 8.48438C9.39989 8.48438 9.08447 8.16895 9.08447 7.78125C9.08447 7.39355 9.39989 7.07812 9.7876 7.07812C10.1753 7.07812 10.4907 7.39355 10.4907 7.78125C10.4907 8.16895 10.1753 8.48438 9.7876 8.48438Z" fill="white"/>
<path d="M22.4907 11.2969H20.3345V7.78125C20.3345 3.49064 16.8648 0 12.6001 0C8.33536 0 4.86572 3.49064 4.86572 7.78125V11.2969H2.70947C1.54636 11.2969 0.600098 12.2431 0.600098 13.4062V14.8125C0.600098 15.9756 1.54636 16.9219 2.70947 16.9219C3.26986 16.9219 3.80391 16.7064 4.21318 16.3151C4.36932 16.1658 4.49944 15.9984 4.60135 15.818L4.78322 15.909L3.47068 23.1718C3.4336 23.3768 3.48938 23.5878 3.62302 23.7477C3.75661 23.9076 3.95424 24 4.1626 24H21.0376C21.246 24 21.4436 23.9076 21.5772 23.7477C21.7108 23.5878 21.7666 23.3768 21.7295 23.1718L20.417 15.909L20.5988 15.818C20.9572 16.4527 21.6622 16.9219 22.4907 16.9219C23.6538 16.9219 24.6001 15.9756 24.6001 14.8125V13.4062C24.6001 12.2431 23.6538 11.2969 22.4907 11.2969ZM23.1938 14.8125C23.1938 15.2002 22.8784 15.5156 22.4907 15.5156C22.0912 15.5156 21.7407 15.1871 21.7407 14.8125C21.7407 14.5688 21.6146 14.3425 21.4073 14.2144C21.2 14.0863 20.9411 14.0746 20.7232 14.1836C20.2914 14.3994 18.3262 15.3821 17.9107 15.5898C17.5633 15.7635 17.4226 16.1858 17.5962 16.5332C17.7698 16.8805 18.1921 17.0213 18.5395 16.8476L19.1063 16.5642L20.196 22.5938H17.522V20.4375C17.522 20.0492 17.2072 19.7344 16.8188 19.7344C16.4305 19.7344 16.1157 20.0492 16.1157 20.4375V22.5938H13.3032V19.0312C13.3032 18.6429 12.9884 18.3281 12.6001 18.3281C12.2118 18.3281 11.897 18.6429 11.897 19.0312V22.5938H9.08447V20.4375C9.08447 20.0492 8.76966 19.7344 8.38135 19.7344C7.99304 19.7344 7.67822 20.0492 7.67822 20.4375V22.5938H5.00419L6.09385 16.5643L6.66066 16.8477C7.00814 17.0214 7.43039 16.8804 7.60397 16.5332C7.77764 16.1859 7.63688 15.7635 7.28953 15.5899C6.87333 15.3818 4.90791 14.3991 4.47704 14.1836C4.25902 14.0746 4.00013 14.0864 3.79294 14.2144C3.58561 14.3425 3.45947 14.5688 3.45947 14.8125C3.45947 15.1871 3.10899 15.5156 2.70947 15.5156C2.32177 15.5156 2.00635 15.2002 2.00635 14.8125V13.4062C2.00635 13.0185 2.32177 12.7031 2.70947 12.7031H6.9751C7.36341 12.7031 7.67822 12.3883 7.67822 12C7.67822 11.6117 7.36341 11.2969 6.9751 11.2969H6.27197V7.78125C6.27197 4.26605 9.11077 1.40625 12.6001 1.40625C16.0894 1.40625 18.9282 4.26605 18.9282 7.78125V11.2969H18.2251C17.8368 11.2969 17.522 11.6117 17.522 12C17.522 12.3883 17.8368 12.7031 18.2251 12.7031H22.4907C22.8784 12.7031 23.1938 13.0185 23.1938 13.4062V14.8125Z" fill="white"/>
<path d="M12.6001 9.89062C11.437 9.89062 10.4907 10.8369 10.4907 12V13.4062C10.4907 14.5694 11.437 15.5156 12.6001 15.5156C13.7632 15.5156 14.7095 14.5694 14.7095 13.4062V12C14.7095 10.8369 13.7632 9.89062 12.6001 9.89062ZM13.3032 13.4062C13.3032 13.794 12.9878 14.1094 12.6001 14.1094C12.2124 14.1094 11.897 13.794 11.897 13.4062V12C11.897 11.6123 12.2124 11.2969 12.6001 11.2969C12.9878 11.2969 13.3032 11.6123 13.3032 12V13.4062Z" fill="white"/>
</g>
<defs>
<clipPath id="clip0">
<rect x="0.600098" width="24" height="24" fill="white"/>
</clipPath>
</defs>
</svg>

<svg width="25" height="24" fill="none" xmlns="http://www.w3.org/2000/svg"><g clip-path="url(#clip0)" fill="#fff"><path d="M15.413 5.672c-1.164 0-2.11.946-2.11 2.11 0 1.162.946 2.109 2.11 2.109a2.112 2.112 0 002.109-2.11c0-1.163-.946-2.11-2.11-2.11zm0 2.812a.704.704 0 11.001-1.407.704.704 0 01-.001 1.407zM9.788 5.672c-1.164 0-2.11.946-2.11 2.11 0 1.162.946 2.109 2.11 2.109a2.112 2.112 0 002.109-2.11c0-1.163-.946-2.11-2.11-2.11zm0 2.812a.704.704 0 11.001-1.407.704.704 0 01-.001 1.407z"/><path d="M22.49 11.297h-2.155V7.78C20.334 3.491 16.864 0 12.6 0 8.335 0 4.866 3.49 4.866 7.781v3.516H2.709A2.111 2.111 0 00.6 13.407v1.405c0 1.164.946 2.11 2.11 2.11.56 0 1.094-.216 1.503-.607.156-.15.286-.317.388-.497l.182.091-1.312 7.263a.703.703 0 00.692.828h16.875a.703.703 0 00.692-.828l-1.313-7.263.182-.091a2.183 2.183 0 001.892 1.104c1.163 0 2.11-.946 2.11-2.11v-1.406c0-1.163-.947-2.11-2.11-2.11zm.704 3.515a.704.704 0 01-.703.704c-.4 0-.75-.329-.75-.704a.703.703 0 00-1.018-.628l-2.812 1.406a.703.703 0 00.628 1.258l.567-.284 1.09 6.03h-2.674v-2.157a.703.703 0 00-1.406 0v2.157h-2.813V19.03a.703.703 0 00-1.406 0v3.563H9.084v-2.157a.703.703 0 00-1.406 0v2.157H5.004l1.09-6.03.567.284a.703.703 0 00.629-1.258l-2.813-1.406a.703.703 0 00-1.018.629c0 .374-.35.703-.75.703a.704.704 0 01-.703-.704v-1.406c0-.388.316-.703.703-.703h4.266a.703.703 0 000-1.406h-.703V7.78c0-3.515 2.839-6.375 6.328-6.375 3.49 0 6.328 2.86 6.328 6.375v3.516h-.703a.703.703 0 000 1.406h4.266c.387 0 .703.316.703.703v1.406z"/><path d="M12.6 9.89c-1.163 0-2.11.947-2.11 2.11v1.406c0 1.163.947 2.11 2.11 2.11 1.163 0 2.11-.947 2.11-2.11V12c0-1.163-.947-2.11-2.11-2.11zm.703 3.516a.704.704 0 01-1.406 0V12a.704.704 0 011.406 0v1.406z"/></g><defs><clipPath id="clip0"><path fill="#fff" d="M.6 0h24v24H.6z"/></clipPath></defs></svg>
